!!!COM: Bach, Johann Sebastian
!!!OPR: Joh. Seb. Bachs vierstimmige Choralges‰nge
!!!XEN: Four-part Chorales
!!!OTL: 81. Herr Jesu Christ, du hˆchstes Gut
!!!SCT: BWV 334
!!!SCA: Thematisch-systematisches Verzeichnis der musikalischen Werke Johann Sebastian Bach: Bach-Werke-Verzeichnis (Schmieder)
!!!YOR: Bach Gesellschaft Edition xxxix
!!!ENC: Steven Rasmussen
!!!CDT: 1685/3//-1750/7/28/
!!!OCY: Deutschland
!!!YEC: Copyright (c) 1994, 2000 Center for Computer Assisted Research in the Humanities
!!!YEM: Rights to all derivative editions reserved
!!!YEN: United States of America
**kern	**silbe	**kern	**kern	**kern	**silbe
*I:[SOPRANO]	*I:[SOPRANO]	*I:[ALTO]	*I:[TENORE]	*I:[BASSO]	*I:[BASSO]
*>[A,A,B]	*	*>[A,A,B]	*>[A,A,B]	*>[A,A,B]	*
*>A	*	*>A	*>A	*>A	*
*clefG2	*	*clefG2	*clefGv2	*clefF4	*
*k[b-e-]	*	*k[b-e-]	*k[b-e-]	*k[b-e-]	*
*g:	*	*g:	*g:	*g:	*
*M4/4	*	*M4/4	*M4/4	*M4/4	*
4g	Herrsieh'	4d	4B-	4G	.
=1	=1	=1	=1	=1	=1
4g	Je-doch,	4e-	4A	4C	.
4f#	-suwie	8dL	4A	4D	.
.	.	8cJ	.	.	.
4g	Christ,ich	4B-	4G	4E-	.
4a	duin	4e-	4c	8DL	.
.	.	.	.	8CJ	.
=2	=2	=2	=2	=2	=2
4b-	h√∂ch-mei-	4d	(8F#	4D	.
.	.	.	4G)	.	.
4a	-stes-nem	4d	.	4D	.
.	.	.	8F#	.	.
4g;	Gut,Mut	4d;	4B-;	4GG;	.
4g	dumit	4d	4B-	4G	.
=3	=3	=3	=3	=3	=3
4a	Brunn-Schmer-	4e-	4c	4G	.
4a	-quell-zen	4d	4c	4F#	.
4dd	al-bin	4d	4Bn	4Fn	.
4cc	-lerbe-	8gL	4c	4E-	.
.	.	8f#J	.	.	.
=4	=4	=4	=4	=4	=4
2b-	Gna--la-	2g	4d	4D	.
.	.	.	8enL	4C#	.
.	.	.	8GJ	.	.
4a;	-den,-den,	4f#;	4d;	4D;	.
=:|!	=:|!	=:|!	=:|!	=:|!	=:|!
*>B	*	*>B	*>B	*>B	*
4dd	und	4g	4d	4B-	.
=5	=5	=5	=5	=5	=5
4cc	in	8gL	8e-L	8B-L	.
.	.	8fJ	8fJ	8AJ	.
4b-	mir	8fL	8gL	4G	.
.	.	8e-J	8B-J	.	.
8aL	hab'	8e-L	8cL	8GL	.
8b-J	.	8dJ	8dJ	8FJ	.
4cc	der	8cL	8GL	4E-	.
.	.	8aJ	8cJ	.	.
=6	=6	=6	=6	=6	=6
4b-	Pfei-	(8f#	8dL	8DL	.
.	.	4g)	8e-J	8CJ	.
4a	-le	.	8AL	4D	.
.	.	8f#	8dJ	.	.
4g;	viel,	4d;	4B-;	4GG;	.
4b-	die	8gL	4d	4G	.
.	.	8fnJ	.	.	.
=7	=7	=7	=7	=7	=7
4a	im	8enL	8c#L	8GL	.
.	.	8dJ	8dJ	8FJ	.
4g	Ge-	8dL	4en	4En	Ge-
.	.	8c#J	.	.	.
8fL	-wis-	8dL	4.A	[2D	-wis-
8enJ	.	8eJ	.	.	.
8dL	-sen	8fL	.	.	.
8eJ	.	8c#J	8G	.	.
=8	=8	=8	=8	=8	=8
4f	oh-	(8d	8AL	8D]	.
.	.	4f)	8cJ	8AA	-sen
4g	-ne	.	8dL	8BB-	oh-
.	.	8en	8cJ	8C	-ne
4a;	Ziel	4f;	4c;	4FF;	Ziel
4a	mich	4f	4c	8FL	.
.	.	.	.	8E-J	.
=9	=9	=9	=9	=9	=9
4b-	ar-	8fL	4d	8DL	.
.	.	8gJ	.	8E-J	.
4cc	-men	4a	4e-	8DL	.
.	.	.	.	8CJ	.
4.dd	S√ºn-	4a	4f	8BB-L	.
.	.	.	.	8C	.
.	.	[4d	4f#	8BB-	.
8cc	.	.	.	8AAJ	.
=10	=10	=10	=10	=10	=10
4b-	.	4d]	4g	8GGL	.
.	.	.	.	8BB-J	.
8ccL	-der	8cL	4G	8E-L	.
8b-J	.	8dJ	.	8DJ	.
2a	dr√º-	4e-	4G	8CL	.
.	.	.	.	8AAJ	.
.	.	8dL	4F#	4D	.
.	.	8cJ	.	.	.
=11	=11	=11	=11	=11	=11
2.g;	-cken.	2.Bn;	2.D;	2.GG;	.
==|!	==|!	==|!	==|!	==|!	==|!
*-	*-	*-	*-	*-	*-
!!!RWG: Key is interpreted using the Humdrum key tool.
!!!END: 1994/07/07
!!!EMD: Converted from MuseData to Humdrum Dec 19, 2000, by Andreas Kornstaedt using muse2kern.
!!!EED: Craig Stuart Sapp
!!!EEV: 2024/03/31
!!!ONB: Some non-unicode characters
